X: 37622
T: Sneug Water, The
R: waltz
M: 3/4
K: Dmajor
A, DE|FD A,2 (3DEF|E3D FD|B,2 D2 DE|D3D FA|
B2 A2 GA|F2 E2 DA,|B,2 D2 (3DEF|E3A- AG|
FD A,2 (3DEF|E3D FD|B,2 D2 (3DEF|E3E FG|
A2 BF ED|E2 FD B,A,|B,2 D2 DE|D3:|
|:D FG|A3A- AB|A3A FA|B3A Bd|B2 A2 G2|
B2 A2 GA|F2 E2 DA,|B,2 D2 (3DEF|E3|
[1 E FG|A3A- AB|A3A FA|B3A Bd|B2 A2 G2|
A2 dF ED|E2 FD B,A,|B,2 D2 DE|D3:|
[2 E AG|FD A,2 (3DEF|E3D FD|B,2 D2 (3DEF|E3E FG|
A2 BF ED|E2 FD B,A,|B,2 D2 DE|D3||

